X:1
T:Title
T: BWV 668 "Before your throne I now appear"
T:J.S.Bach
C:Composer
%%score { ( 1 4 ) | ( 2 3 ) }
L:1/8
Q:1/4=45
M:4/4
K:G
V:1 treble nm="Piano" snm="Pno."
V:4 treble 
V:2 bass 
V:3 bass 
V:1
 z8 | z GGF E2 FE | DE F2 G3 F | EADG- GF/E/ FG | A2 GA BDD^C | B,2 ^CB, A,B, C2 | %6
 D3 C/B,/ C3 B,/A,/ | G4 G2 Ac/B/ | B2 A>B c2 B2 | TA2- A/G/A G4- | G4- !fermata!G z z2 | %11
 z EDE FGAG | F2 G^G A=G FE/^D/ | E6- ED/^C/ | DFGF ED^C^D | E2- EF/G/ A2- AG/F/ | G3 F/E/ FD G2- | %17
 G2- G/E/D/E/ FG AG/F/ | z4 B4 | c2 B2 A2 G2 | F2 G2 A4- | A4- !fermata!A z z2 | z4 z A,B,^C | %23
 D2 =F2 E^F ^G2 | A=FED ^C/^D/ E2 D | E>F G>A B A2 B/A/ | G2 A2 D2 E2 | FAGF ED C2 | z4 d4 | %29
 c2 B2 AG F2 | GF E2 D4- | D4 z4 | z EDE FG/F/ EF | G3 F/E/ FB, E2- | E2 ^D2 EFGF | ED/E/ FE D3 C | %36
 B,^C DE/D/ CD EF/E/ | DEF^G A2 z2 | z ABA GF/G/ AG | z4 B4 | c2 B2 A2 GA | B2 A2 G4- | G8- | G8- | %44
 !fermata!G8 |] %45
V:2
 z G,G,A, B,2 A,B, | CB, A,2 G,^G,A,^A, | B,3 A, B,^C D2- | DCB,E A,4- | A,B, C2 B,A, G,2- | %5
 G,F,G,^G, A,3 =G, | A,G,/F,/ G,2- G,F,/E,/ F,2 | z G,G,A, B,2 ^C^D | EG,G,F, E,A,A,G,- | %9
 G, G,2 F, G,G,G,=F, | E,3 _E, D,B,CB, | A,G,F,G, A,B, C2- | C2 B,2 E,2 A,2- | %13
 A,G,/F,/ G,3 F,/E,/ F,2- | F,2 z F, G,^G, A,2- | A,G,/F,/ G,2- G,F,/E,/ F,B, | %16
 E,3 A, D,2 z/ D/E/D/ | CB,A,B, C3 B,/A,/ | B,B,B,C D2 G2- | GG,/A,/ B,C/D/ ED DE/D/ | %20
 CB,/A,/ B,G,- G,G,/F,/ E,F,/G,/ | A, D2 ^C DD=CB, | A,2 F,2 G,F, E,2 | D,CB,A, ^G,A, B,2 | %24
 C2 B,2 E,/F,/G, A,B, | C2 E2 ^DE F2- | FEDC B,2 ^C2 | D4 z D,E,F, | G,A,B,^C D=C B,2 | %29
 z A,A,A, F,B, A,2 | G,A,B,A,- A,F,G,A,- | A,G,/F,/ G,2- G,!fermata!F, B,2 | C2 B,2 A,2 G,A, | %33
 B,2 A,2 G,4 | F,G, A,B,/A,/ G,A, B,2- | B,2 ^A,2 B,F,E,F, | G,A,/G,/ F,^G, A,B,/A,/ G,A, | %37
 B,^C D2 CF,G,F, | E,D,/E,/ F,E, D,2 z2 | z B,CB, A,G,/A,/ B,A, | G,A, B,C/D/ EDDC | %41
 D2 EB, B,2- B,C | G,2 z B, CC,B,,C, | D,E,/D,/ C,D, E,[=F,B,][G,C][F,B,] | %44
 [_E,A,][D,G,]/[E,A,]/ [=F,B,][E,A,] !fermata![D,G,]4 |] %45
V:3
 x8 | x8 | x8 | z4 z D,D,E, | F,2 E,F, G,F, E,2 | D,^D,E,^E, F,3 =E, | F,B,, E,2- E,A,, D,2 | %7
 G,, z z2 z G,G,F, | E,>D, C,D, A,,F,,G,,B,, | C,A,,D,D,, E,,E, B,,A,,/B,,/ | C,4 G,, z z2 | x8 | %12
 z D,E,D, C,B,,A,,B,, | C,3 B,,/^A,,/ B,,4- | B,,2 z2 z B,,A,,B,, | C,D,E,D, ^C,A,, D,2- | %16
 D,^C,/B,,/ C,=C,- C,B,,/A,,/ B,,G,, | A,,B,,/C,/ D,2- D,E,F,D, | G,4- G,G,G,=F, | %19
 E,E,E,D, C,C,C,B,, | A,,D,B,,E, ^C,A,,/B,,/ C,A,, | F,D,A,A,, D, z z2 | x8 | z4 z D,C,B,, | %24
 A,,2 ^G,,2 A,,=G,, F,,2 | E,,A,,G,,C, B,,^C,^D,B,, | E,2 F,2 z G,F,E, | D,2 B,,2 C,B,, A,,2 | %28
 G,,F,,E,,A,, D,,D,D,E, | F,D,G,G,, D,D,D,^C, | B,,A,, G,,A,,/G,,/ F,,D,,E,,F,, | %31
 G,,A,,B,,^C, D,2 z2 | x8 | z C,D,C, B,,A,,/B,,/ C,B,, | A,,2 B,,2 E,,2 E,D, | %35
 ^C,2 F,,F, B,,A,,G,,A,, | E,,2 B,,2 A,,2 z2 | z2 B,,2 A,,2 B,,2 | ^C,2 D,C, B,,2 C,2 | %39
 D,^D, E,2- E,2 D,2 | E,E,E,D, C,D,/C,/ B,,A,, | G,,B,,^C,^D, E,,E,=D,=C, | %42
 B,,A,,/B,,/ C,G,, E,,F,,G,,A,, | B,,G,,A,,B,, C,4- | C,4 !fermata!G,,4 |] %45
V:4
 x8 | x8 | x8 | x8 | x8 | x8 | x8 | B,B,B,B, D2 EF | GB,ED CD D2 | ECDC B,C D2- | %10
 DC/B,/ CA, B, z z2 | x8 | x8 | x8 | x8 | x8 | x8 | x8 | GDDE =FG/F/ ED | CGGF EF G2 | %20
 z D D^C/B,/ EC/D/ EC | D/E/F E/F/G F z z2 | x8 | x8 | x8 | x8 | x8 | x8 | B,D G2 FFFG | %29
 AF D2- D4- | D D2 ^C D3 =C | B,4- B,A, z2 | x8 | x8 | x8 | x8 | x8 | x8 | x8 | F2 EF/G/ F4 | %40
 EF G2- GFGF | G3 F- FE=FE | DC/D/ ED C z z2 | B,2 z2 z D_ED | CB,/C/ DC B,4 |] %45

